Obsidian-SemiLight/actions/24s/format-currency.svg

<svg viewBox="0 0 24 24" xmlns="http://www.w3.org/2000/svg"><path d="m10 3v2.1308594c-.9771733.1418826-1.8093134.3990784-2.4628906.8007812-1.01055.6149-1.515625 1.558078-1.515625 2.8300782-.0045585 2.1952922 1.5574744 2.9186712 3.9785156 3.5839842v4.990235c-1.1727207-.099011-2.2448911-.319434-3.3769531-.802735l-.6230469 1.355469c.56451.3013 1.3273025.562156 2.2890625.785156.5442756.122315 1.1112192.200577 1.7109375.253906v2.072266h1v-2.023438c.170103.004537.31439.023438.494141.023438.163513-.001299.336092-.015301.505859-.023438v2.023438h1v-2.119141c1.996756-.284852 3.979992-1.202256 3.958984-3.6875-.069983-1.829093-1.203121-2.50751-3.958984-3.476562v-4.9531251c.903264.1207438 2.002058.3722771 3.224609.9824219l.775391-1.5429688c-.55058-.2955-1.831094-.7664063-2.646484-.9414062-.433513-.0926134-.886518-.155605-1.353516-.1992188v-2.0625h-1v2.0136719c-.092209-.0017585-.178091-.0136719-.271484-.0136719-.256737 0-.487798.0203437-.728516.0332031v-2.0332031zm1.4375 3.6484375c.151023.0008281.362336.0094501.5625.0175781v4.7011724c-.157449-.052712-.25536-.093163-.421875-.148438-.178702-.043982-.384921-.108127-.578125-.160156v-4.3964846c.145876-.00637.291583-.0136559.4375-.0136719zm-1.4375.1113281v3.9960934c-1.2269978-.434373-2.3570439-1.0911998-2.3242188-2.1894528-.0595485-1.0413021 1.0044482-1.5907823 2.3242188-1.8066406zm1 5.8535154c.183873.04679.329816.09211.521484.140625.16101.04582.317397.09735.478516.144532v4.492187c-.149465.0031-.311388.018788-.451172.017578-.191478-.001782-.364669-.01399-.548828-.019531zm2 .597657c1.28148.448537 2.319728 1.035348 2.296875 2.064453-.03888 1.395694-1.131612 1.882894-2.296875 2.048828z" fill="#4d4d4d"/></svg>

<svg xmlns="http://www.w3.org/2000/svg" viewBox="0 0 24 24">
  <defs id="defs3051">
    <style type="text/css" id="current-color-scheme">
      .ColorScheme-Text {
        color:#4d4d4d;
      }
      </style>
  </defs>
 <path style="fill:currentColor;fill-opacity:1;stroke:none" 
     d="M 10 3 L 10 5.1308594 C 9.0228267 5.272742 8.1906866 5.5299378 7.5371094 5.9316406 C 6.5265594 6.5465406 6.0214844 7.4897186 6.0214844 8.7617188 C 6.0169259 10.957011 7.5789588 11.68039 10 12.345703 L 10 17.335938 C 8.8272793 17.236927 7.7551089 17.016504 6.6230469 16.533203 L 6 17.888672 C 6.56451 18.189972 7.3273025 18.450828 8.2890625 18.673828 C 8.8333381 18.796143 9.4002817 18.874405 10 18.927734 L 10 21 L 11 21 L 11 18.976562 C 11.170103 18.981099 11.31439 19 11.494141 19 C 11.657654 18.998701 11.830233 18.984699 12 18.976562 L 12 21 L 13 21 L 13 18.880859 C 14.996756 18.596007 16.979992 17.678603 16.958984 15.193359 C 16.889001 13.364266 15.755863 12.685849 13 11.716797 L 13 6.7636719 C 13.903264 6.8844157 15.002058 7.135949 16.224609 7.7460938 L 17 6.203125 C 16.44942 5.907625 15.168906 5.4367187 14.353516 5.2617188 C 13.920003 5.1691054 13.466998 5.1061138 13 5.0625 L 13 3 L 12 3 L 12 5.0136719 C 11.907791 5.0119134 11.821909 5 11.728516 5 C 11.471779 5 11.240718 5.0203437 11 5.0332031 L 11 3 L 10 3 z M 11.4375 6.6484375 C 11.588523 6.6492656 11.799836 6.6578876 12 6.6660156 L 12 11.367188 C 11.842551 11.314476 11.74464 11.274025 11.578125 11.21875 C 11.399423 11.174768 11.193204 11.110623 11 11.058594 L 11 6.6621094 C 11.145876 6.6557394 11.291583 6.6484535 11.4375 6.6484375 z M 10 6.7597656 L 10 10.755859 C 8.7730022 10.321486 7.6429561 9.6646592 7.6757812 8.5664062 C 7.6162327 7.5251041 8.6802294 6.9756239 10 6.7597656 z M 11 12.613281 C 11.183873 12.660071 11.329816 12.705391 11.521484 12.753906 C 11.682494 12.799726 11.838881 12.851256 12 12.898438 L 12 17.390625 C 11.850535 17.393725 11.688612 17.409413 11.548828 17.408203 C 11.35735 17.406421 11.184159 17.394213 11 17.388672 L 11 12.613281 z M 13 13.210938 C 14.28148 13.659475 15.319728 14.246286 15.296875 15.275391 C 15.257995 16.671085 14.165263 17.158285 13 17.324219 L 13 13.210938 z "
     class="ColorScheme-Text"
     />
</svg>
